X:1
T:[ID 5-21b]
T:[ID 5-21b]
T:Bezeichnung standardisiert: Aldenburger; Aldenburger
T:Urheber unbekannt Datum in der hier transkribierten schriftlichen Quelle: 1773
C:Urheber unbekannt
C:Datum in der hier transkribierten schriftlichen Quelle: 1773
L:1/8
M:4/4
K:G
V:1 treble 
V:1
 G2 G2 G2 Bc | d2 d2 d4 | e2 f2 g2 a2 | f2 ef d2 ef | g2 e2 f2 g2 | a2 ab a2 g2 | %6
 f2 d2 e2"^\201*" c2 | d4 d4 :: B2 d2 d4 | A2 c2 c4 | G2 B2 B4 | A2 A2 A4 | B2 d2 d4 | A2 c2 c4 | %14
 B2 G2 A2 F2 | G4 G4 :| %16

